!!!COM:      Bach, Johann Sebastian
!!!CDT:      1685/03/31/-1750/07/28/
!!!OPR@@GER: Das wohltemperirte Clavier
!!!OVM@@GER: Band II
!!!OPR@ENG:  Well-Tempered Clavier
!!!OVM@ENG:  Book II
!!!OTL:      Prelude
!!!OKY:      C major
!!!ONM:      no. 1
!!!SCT:      BWV 870
!!!OMV:      1
**kern	**kern	**kern	**kern	**kern	**kern
*clefF4	*clefF4	*	*	*	*clefG2
*M4/4	*M4/4	*	*	*	*M4/4
*met(c)	*met(c)	*	*	*	*met(c)
*MM56	*MM56	*MM56	*MM56	*MM56	*MM56
=1-	=1-	=1-	=1-	=1-	=1-
[1CC	[1C	1ryy	1ryy	1ryy	16r
.	.	.	.	.	16cc
.	.	.	.	.	16dd
.	.	.	.	.	16ee
.	.	.	.	.	16g
.	.	.	.	.	16ee
.	.	.	.	.	16f
.	.	.	.	.	16dd
.	.	.	.	.	32e
.	.	.	.	.	32cc
.	.	.	.	.	32b
.	.	.	.	.	32a
.	.	.	.	.	16g
.	.	.	.	.	16b-
.	.	.	.	.	16e
.	.	.	.	.	16g
.	.	.	.	.	16c
.	.	.	.	.	16b-
=2	=2	=2	=2	=2	=2
1CC_	1C_	1ryy	1ryy	1ryy	32a
.	.	.	.	.	32g
.	.	.	.	.	32f
.	.	.	.	.	32e
.	.	.	.	.	16f
.	.	.	.	.	16a
.	.	.	.	.	16d
.	.	.	.	.	16f
.	.	.	.	.	16A
.	.	.	.	.	16c
.	.	.	.	.	16B
.	.	.	.	.	16d
.	.	.	.	.	16e
.	.	.	.	.	16f
.	.	.	.	.	16G
.	.	.	.	.	16f
.	.	.	.	.	16e
.	.	.	.	.	16d
=3	=3	=3	=3	=3	=3
*	*	*staff:14	*	*staff:14	*
*	*	*clefG2	*	*clefG2	*
4CC]	4C]	16r	1ryy	16ryy	[1e
.	.	16c	.	[8.c	.
.	.	16B	.	.	.
.	.	16A	.	.	.
16r	4ryy	[4G	.	4c_	.
16F	.	.	.	.	.
16E	.	.	.	.	.
16D	.	.	.	.	.
32C	2ryy	2G]	.	2c]	.
32D	.	.	.	.	.
32C	.	.	.	.	.
32BB	.	.	.	.	.
16C	.	.	.	.	.
16E	.	.	.	.	.
16GG	.	.	.	.	.
16BB-	.	.	.	.	.
16AA	.	.	.	.	.
16GG	.	.	.	.	.
=4	=4	=4	=4	=4	=4
[2FF	16r	1ryy	1ryy	2A	4e_
.	16C	.	.	.	.
.	16D	.	.	.	.
.	16E	.	.	.	.
.	8F	.	.	.	16e]
.	.	.	.	.	8d
.	8E	.	.	.	.
.	.	.	.	.	16c
4FF]	4D	.	.	8.G	16B
.	.	.	.	.	16d
.	.	.	.	.	[8g
.	.	.	.	16B	.
8EE	4E	.	.	[4c	16g]
.	.	.	.	.	16g
8AA	.	.	.	.	16f
.	.	.	.	.	16e
=5	=5	=5	=5	=5	=5
4DD	2D	1ryy	1ryy	16c]	[4f
.	.	.	.	16c	.
.	.	.	.	16d	.
.	.	.	.	16A	.
4GG	.	.	.	4B	16f]
.	.	.	.	.	16f
.	.	.	.	.	16e
.	.	.	.	.	16d
16CC	16C	.	.	[2c	2e
16GG	16r	.	.	.	.
16AA	8r	.	.	.	.
16BB	.	.	.	.	.
16C	4r	.	.	.	.
16E	.	.	.	.	.
16AA	.	.	.	.	.
16C	.	.	.	.	.
=6	=6	=6	=6	=6	=6
8FF#	2r	1ryy	1ryy	16c]	[4d
.	.	.	.	16c	.
8DD	.	.	.	16B	.
.	.	.	.	16A	.
[4GG	.	.	.	4B	16d]
.	.	.	.	.	16d
.	.	.	.	.	16e
.	.	.	.	.	16g
16GG]	4r	.	.	[2A	[4c
32AA	.	.	.	.	.
32BB	.	.	.	.	.
32C	.	.	.	.	.
32D	.	.	.	.	.
16E	.	.	.	.	.
4FF#X	8r	.	.	.	16c]
.	.	.	.	.	32a
.	.	.	.	.	32g
.	[8D	.	.	.	16a
.	.	.	.	.	16c
=7	=7	=7	=7	=7	=7
4.GG	4D_	1ryy	1ryy	16A]	[4B
.	.	.	.	16A	.
.	.	.	.	16G	.
.	.	.	.	16F#	.
.	8D]	.	.	8G	16B]
.	.	.	.	.	16d
8FFn	8r	.	.	8r	16e
.	.	.	.	.	16fn
8EE	8r	.	.	16r	[4g
.	.	.	.	16e	.
8GG	[4.E	.	.	16B	.
.	.	.	.	16d	.
8AA	.	.	.	16c#	8.g]
.	.	.	.	16e	.
8C#	.	.	.	[8A	.
.	.	.	.	.	16g
=8	=8	=8	=8	=8	=8
[4DD	16E]	1ryy	1ryy	4.A]	2f
.	16AA	.	.	.	.
.	16BB	.	.	.	.
.	16C#	.	.	.	.
16DD]	16D	.	.	.	.
16F	16r	.	.	.	.
16BB	8r	.	.	[8d	.
16D	.	.	.	.	.
8GG#	2ryy	.	.	16d]	[4e
.	.	.	.	16d	.
8EE	.	.	.	16cn	.
.	.	.	.	16B	.
8AA	.	.	.	[4c	16e]
.	.	.	.	.	16e
8GGn	.	.	.	.	16f
.	.	.	.	.	16g
=9	=9	=9	=9	=9	=9
8FF	1ryy	1ryy	1ryy	4c]	32a
.	.	.	.	.	32g
.	.	.	.	.	32f
.	.	.	.	.	32e
8EE	.	.	.	.	16f
.	.	.	.	.	16a
8FF	.	.	.	[4d	16d
.	.	.	.	.	16cc
8DD	.	.	.	.	16b
.	.	.	.	.	16a
[2EE	.	.	.	16d]	[4g#
.	.	.	.	16f	.
.	.	.	.	16e	.
.	.	.	.	16d	.
.	.	.	.	8.c	16g#]
.	.	.	.	.	16e
.	.	.	.	.	[8a
.	.	.	.	16c	.
=10	=10	=10	=10	=10	=10
16EE]	2r	1ryy	1ryy	4.B	8a]
16BB	.	.	.	.	.
16C	.	.	.	.	8a
16D	.	.	.	.	.
16E	.	.	.	.	8g
16G	.	.	.	.	.
16BB	.	.	.	[8d	8f
16D	.	.	.	.	.
16C#	8r	.	.	16d]	8.e
16E	.	.	.	16d	.
8AA	16r	.	.	8c#	.
.	[16G	.	.	.	[16e
[4D	16G]	.	.	[4A	16e]
.	16G	.	.	.	16e
.	16F	.	.	.	16d
.	16E	.	.	.	16c#X
=11	=11	=11	=11	=11	=11
8D]	2F	1ryy	1ryy	16A]	16d
.	.	.	.	16r	16a
8AA	.	.	.	8r	16b
.	.	.	.	.	16cc#
8BB-	.	.	.	8r	16dd
.	.	.	.	.	[8.ff
8D	.	.	.	16a	.
.	.	.	.	16ccn	.
2GG	[2G	.	.	[2b-	16ff]
.	.	.	.	.	16ff
.	.	.	.	.	16ee-
.	.	.	.	.	16dd
.	.	.	.	.	16ee-
.	.	.	.	.	16gg
.	.	.	.	.	16cc#
.	.	.	.	.	16dd
=12	=12	=12	=12	=12	=12
2.AA	8.G]	1ryy	1ryy	16b-]	4.cc#
.	.	.	.	16b-	.
.	.	.	.	[8a	.
.	16G	.	.	.	.
.	8F#	.	.	16a]	.
.	.	.	.	8a	.
.	8Fn	.	.	.	[8dd
.	.	.	.	16g#	.
.	8E	.	.	[4a	16dd]
.	.	.	.	.	16dd
.	8D	.	.	.	16cc#X
.	.	.	.	.	16bn
4AA	8E	.	.	8.a]	16cc#
.	.	.	.	.	16dd
.	[8A	.	.	.	[8ee
.	.	.	.	16gn	.
=13	=13	=13	=13	=13	=13
[2D	8A]	1ryy	1ryy	[4f	16ee]
.	.	.	.	.	16a
.	8B-	.	.	.	16dd
.	.	.	.	.	16cc#
.	8A	.	.	16f]	8.dd
.	.	.	.	16f	.
.	8G	.	.	8b-	.
.	.	.	.	.	16ee
8.D]	16F	.	.	8.a	[4ff
.	16G	.	.	.	.
.	[8A	.	.	.	.
16C	.	.	.	16a	.
8.BB	16A]	.	.	8.dd	16ff]
.	16G#	.	.	.	16ee
.	8A	.	.	.	8ff
16AA	.	.	.	[16dd	.
=14	=14	=14	=14	=14	=14
8GG#	16r	1ryy	1ryy	16dd]	[4ee
.	16E	.	.	16dd	.
8r	16F#	.	.	16cc	.
.	16G#X	.	.	16b	.
16r	[4A	.	.	[4cc	16ee]
16C	.	.	.	.	16ee
16Fn	.	.	.	.	16aa
16E	.	.	.	.	16gg#
[4F	16A]	.	.	16cc]	[4aa
.	16A	.	.	16cc#	.
.	16B	.	.	16dd	.
.	16c#	.	.	16ee	.
16F]	[4d	.	.	[4a	16aa]
16E	.	.	.	.	16ggn
16F	.	.	.	.	16aa
16D	.	.	.	.	16ff
=15	=15	=15	=15	=15	=15
[2B-	16d]	1ryy	1ryy	16a]	[4dd
.	16d	.	.	16f#	.
.	16e	.	.	16g	.
.	16f#	.	.	16a	.
.	8.g	.	.	8b-	16dd]
.	.	.	.	.	16ffn
.	.	.	.	8r	16ee
.	16fn	.	.	.	16gg
16B-]	[4e	.	.	8r	[4cc
16A	.	.	.	.	.
16G	.	.	.	[8b-X	.
16B-	.	.	.	.	.
[4A	16e]	.	.	16b-]	8.cc]
.	16c	.	.	32a	.
.	.	.	.	32g	.
.	[8f	.	.	16a	.
.	.	.	.	16cc	16ee-
=16	=16	=16	=16	=16	=16
16A]	4f]	1ryy	1ryy	4.b-	[4dd
16G	.	.	.	.	.
16F	.	.	.	.	.
16A	.	.	.	.	.
8G	8B-	.	.	.	16dd]
.	.	.	.	.	8ff
8C 8G	[8c	.	.	[8b-	.
.	.	.	.	.	16ee
[2F	8.c]	.	.	16b-]	8.ff
.	.	.	.	16g	.
.	.	.	.	[8a	.
.	16A	.	.	.	16cc
.	[4d	.	.	8a]	16ff
.	.	.	.	.	16aa
.	.	.	.	8f	16dd
.	.	.	.	.	16ff
=17	=17	=17	=17	=17	=17
16F]	4d]	1ryy	1ryy	8.g	16bn
16F	.	.	.	.	16dd
16E	.	.	.	.	[8gg
16D	.	.	.	16b	.
8E	8G	.	.	4cc#	16gg]
.	.	.	.	.	16gg
8AA	[8A	.	.	.	16ff
.	.	.	.	.	16ee
[2D	16A]	.	.	[8dd	[4ff
.	16E	.	.	.	.
.	16F	.	.	32dd]	.
.	.	.	.	32ccn	.
.	16A	.	.	32b-	.
.	.	.	.	32a	.
.	8.d	.	.	8.b-	16ff]
.	.	.	.	.	16dd
.	.	.	.	.	[8ff
.	16c	.	.	16a	.
=18	=18	=18	=18	=18	=18
16D]	8B	1ryy	1ryy	8.g#	16ff]
16D	.	.	.	.	16ff
16C	8r	.	.	.	[8ee
16BB	.	.	.	16g#	.
8C	4r	.	.	[4a	16ee]
.	.	.	.	.	16ee-
8F	.	.	.	.	16dd
.	.	.	.	.	16cc#
[4BB-	16r	.	.	16a]	[4dd
.	16D	.	.	16ccn	.
.	16E	.	.	16b-	.
.	16F#	.	.	16a	.
8.BB-]	16G	.	.	16b-	8.dd]
.	16A	.	.	16f#	.
.	[8B-X	.	.	[8gn	.
16E-	.	.	.	.	16dd
=19	=19	=19	=19	=19	=19
[4AA	16B-]	1ryy	1ryy	8.gn]	8cc#
.	16A	.	.	.	.
.	16En	.	.	.	[8ccn
.	16G	.	.	16b-	.
8.AA]	16F#	.	.	16a	8.cc]
.	16G	.	.	16g	.
.	[8A	.	.	16f#	.
16F#X	.	.	.	16e-	16cc
[4GG	16A]	.	.	16d	8bn
.	16G	.	.	16en	.
.	16D	.	.	16fn	[8b-
.	16Fn	.	.	16a	.
8.GG]	16E	.	.	16g	8.b-]
.	16F	.	.	16f	.
.	[8G	.	.	16e	.
16E	.	.	.	16d-	16b-
=20	=20	=20	=20	=20	=20
[4FF	16G]	1ryy	1ryy	4.c	2a
.	16C	.	.	.	.
.	16D	.	.	.	.
.	16E	.	.	.	.
16FF]	16F	.	.	.	.
16A	16r	.	.	.	.
16D	8r	.	.	[8f	.
16F	.	.	.	.	.
8BB	2r	.	.	16f]	[4g
.	.	.	.	16f	.
8GG	.	.	.	16e	.
.	.	.	.	16d	.
[4C	.	.	.	4e	16g]
.	.	.	.	.	16g
.	.	.	.	.	16a
.	.	.	.	.	16cc
=21	=21	=21	=21	=21	=21
16C]	4r	1ryy	1ryy	[2d	[4f
32D	.	.	.	.	.
32E	.	.	.	.	.
32F	.	.	.	.	.
32G	.	.	.	.	.
16A	.	.	.	.	.
4BB	8r	.	.	.	16f]
.	.	.	.	.	32dd
.	.	.	.	.	32cc
.	[8G	.	.	.	16dd
.	.	.	.	.	16f
4.C	4G_	.	.	16d]	[4e
.	.	.	.	16d	.
.	.	.	.	16c	.
.	.	.	.	16B	.
.	8G]	.	.	8c	16e]
.	.	.	.	.	16g
8BB	8r	.	.	8r	16a
.	.	.	.	.	16b
=22	=22	=22	=22	=22	=22
8AA	8r	1ryy	1ryy	16r	[4cc
.	.	.	.	16a	.
8C	[4.A	.	.	16e	.
.	.	.	.	16g	.
8D	.	.	.	16f#	8.cc]
.	.	.	.	16a	.
8F#	.	.	.	[8d	.
.	.	.	.	.	16cc
[4GG	16A]	.	.	4d_	[4b
.	16D	.	.	.	.
.	16E	.	.	.	.
.	16F#	.	.	.	.
16GG]	16G	.	.	8d]	8b]
16B	16r	.	.	.	.
16E	8r	.	.	[8g	32cc#
.	.	.	.	.	32dd
16G	.	.	.	.	16ee
=23	=23	=23	=23	=23	=23
8C#	1ryy	1ryy	1ryy	16g]	[4a
.	.	.	.	16g	.
8AA	.	.	.	16f	.
.	.	.	.	16e	.
8D	.	.	.	2f	16a]
.	.	.	.	.	16a
8Cn	.	.	.	.	16b-
.	.	.	.	.	16cc
8BB-	.	.	.	.	32dd
.	.	.	.	.	32cc
.	.	.	.	.	32b-
.	.	.	.	.	32a
8AA	.	.	.	.	16b-
.	.	.	.	.	16dd
8BB-	.	.	.	[4g	16g
.	.	.	.	.	16ff
8GG	.	.	.	.	16ee
.	.	.	.	.	16dd
=24	=24	=24	=24	=24	=24
[2AA	1ryy	1ryy	1ryy	16g]	[4cc#
.	.	.	.	16b-	.
.	.	.	.	16a	.
.	.	.	.	16g	.
.	.	.	.	8.f	16cc#]
.	.	.	.	.	16a
.	.	.	.	.	[8dd
.	.	.	.	16f	.
16AA]	.	.	.	4.e	8dd]
16E	.	.	.	.	.
16F	.	.	.	.	8dd
16G	.	.	.	.	.
16A	.	.	.	.	8ccn
16c	.	.	.	.	.
16E	.	.	.	[8g	8b-
16G	.	.	.	.	.
=25	=25	=25	=25	=25	=25
16F#	8r	1ryy	1ryy	16g]	8.a
16A	.	.	.	16g	.
8D	16r	.	.	8f#	.
.	[16c	.	.	.	[16a
[4G	16c]	.	.	[4d	16a]
.	16c	.	.	.	16a
.	16B-	.	.	.	16g
.	16A	.	.	.	16f#X
8G]	2B-	.	.	16d]	16g
.	.	.	.	16r	16dd
8D	.	.	.	8r	16ee
.	.	.	.	.	16ff#X
8E-	.	.	.	8r	16gg
.	.	.	.	.	[8.bb-
8G	.	.	.	16dd	.
.	.	.	.	16ffn	.
=26	=26	=26	=26	=26	=26
2C	[2c	1ryy	1ryy	[2ee-	16bb-]
.	.	.	.	.	16bb-
.	.	.	.	.	16aa-
.	.	.	.	.	16gg
.	.	.	.	.	16aa-
.	.	.	.	.	16ccc
.	.	.	.	.	16ff#
.	.	.	.	.	16gg
[2D	8.c]	.	.	16ee-]	4.ff#
.	.	.	.	16ee-	.
.	.	.	.	[8dd	.
.	16c	.	.	.	.
.	8Bn	.	.	16dd]	.
.	.	.	.	8dd	.
.	8B-	.	.	.	[8gg
.	.	.	.	16cc#	.
=27	=27	=27	=27	=27	=27
4D]	8A	1ryy	1ryy	[4dd	16gg]
.	.	.	.	.	16gg
.	8G	.	.	.	16ff#
.	.	.	.	.	16ee
4D	8A	.	.	8.dd]	16ff#
.	.	.	.	.	16gg
.	[8d	.	.	.	[8aa
.	.	.	.	16cc	.
[2G	8d]	.	.	8b-	16aa]
.	.	.	.	.	16dd
.	8e-	.	.	[8cc	16gg
.	.	.	.	.	16ff#X
.	8d	.	.	16cc]	8.gg
.	.	.	.	16b-	.
.	8c	.	.	8ee-	.
.	.	.	.	.	16aa
=28	=28	=28	=28	=28	=28
8.G]	16B-	1ryy	1ryy	8.dd	[4bb-
.	16c	.	.	.	.
.	[8d	.	.	.	.
16F	.	.	.	16dd	.
8.E	16d]	.	.	8.gg	16bb-]
.	16c#	.	.	.	16aa
.	8d	.	.	.	8bb-
16D	.	.	.	[16gg	.
8C#X	16r	.	.	16gg]	[4aa
.	16A	.	.	16gg	.
8r	16Bn	.	.	16ff	.
.	16c#X	.	.	16ee	.
16r	16d	.	.	[4ff	8.aa]
16A	16r	.	.	.	.
16D	8r	.	.	.	.
16F	.	.	.	.	16aa-
=29	=29	=29	=29	=29	=29
*	*	*staff:4	*	*	*
8BB	16r	2ryy	1ryy	16ff]	[4gg
.	16G	.	.	16ff	.
8r	16A	.	.	16ee	.
.	16B	.	.	16dd	.
16r	16c	.	.	[4ee	8.gg]
16G	16r	.	.	.	.
16C	8r	.	.	.	.
16E	.	.	.	.	16gg
4AA	8r	4ryy	.	16ee]	[4ff#
.	.	.	.	16ee-	.
.	[8A	.	.	16dd	.
.	.	.	.	16cc	.
4BB	16A]	8ryy	.	[4dd	16ff#]
.	16G	.	.	.	16een
.	16D	[8g	.	.	[8ffn
.	16F	.	.	.	.
=30	=30	=30	=30	=30	=30
[4C	16E	4g_	1ryy	8dd]	8ff]
.	16F	.	.	.	.
.	[8G	.	.	16cc	16ee
.	.	.	.	16b	16dd
16C]	16G]	8g]	.	4cc	[4ee
16E	16r	.	.	.	.
16AA	8r	8b-	.	.	.
16C	.	.	.	.	.
16FF	4r	[4a	.	2ryy	16ee]
16C	.	.	.	.	16ee
16D	.	.	.	.	16dd
16E	.	.	.	.	16cc
[4F	16r	8.a]	.	.	16dd
.	16A	.	.	.	16ff
.	[8d	.	.	.	16aa
.	.	16a	.	.	16cc
=31	=31	=31	=31	=31	=31
16F]	4d]	4g	1ryy	1ryy	4b
16A	.	.	.	.	.
16G	.	.	.	.	.
16F	.	.	.	.	.
16E	[4e	[4g	.	.	[4cc
16G	.	.	.	.	.
16C	.	.	.	.	.
16E	.	.	.	.	.
2GG	16e]	16g]	.	.	4cc_
.	16E	16g	.	.	.
.	16D	16f	.	.	.
.	16C	16e	.	.	.
.	[4G	16d	.	.	8.cc]
.	.	16e	.	.	.
.	.	[8f	.	.	.
.	.	.	.	.	16b
=32	=32	=32	=32	=32	=32
[1C	2G_	16f]	1ryy	1ryy	2cc
.	.	16f	.	.	.
.	.	16e	.	.	.
.	.	16d	.	.	.
.	.	16e	.	.	.
.	.	16g	.	.	.
.	.	16c	.	.	.
.	.	16e	.	.	.
.	8G]	2A	.	.	16r
.	.	.	.	.	16cc
.	16F	.	.	.	16dd
.	16E	.	.	.	16ee
.	16D	.	.	.	16ff
.	16E	.	.	.	16aa
.	[8F	.	.	.	16dd
.	.	.	.	.	16ff
=33	=33	=33	=33	=33	=33
*	*	*staff:1	*staff:1	*staff:2	*
*	*	*clefF4	*clefF4	*	*
1C_	8F]	[4G	2ryy	16r	[4b-
.	.	.	.	16a	.
.	16E	.	.	16g	.
.	16D	.	.	16f	.
.	4E	16G]	.	8g	16b-]
.	.	16F	.	.	8b-
.	.	8G	.	8e	.
.	.	.	.	.	[16g
.	8F	8A	4ryy	4c	16g]
.	.	.	.	.	16e
.	8E	8G	.	.	16f
.	.	.	.	.	16g
.	4D	4F	8r	16r	8.a
.	.	.	.	16f	.
.	.	.	8A-	8d	.
.	.	.	.	.	16bn
=34	=34	=34	=34	=34	=34
1C]	1ryy	1E	1G	1c;y 1e;y	1g;y 1cc;
==	==	==	==	==	==
*-	*-	*-	*-	*-	*-
!!!AFR:  prelude
!!!EFL:  49/96
!!!END:  1994/01/29/
!!!VID:  2381502658 Bach, BWV 870-01
!!!AST:  Baroque
!!!OCY:  Deutschland
!!!ODT:  1742///
!!!PDT:  1801///
!!!EED:  Walter Hewlett
!!!ENC:  Walter Hewlett
!!!YOR:  Bach Gesellschaft Edition xiv
!!!AFT:  enhanced SCORE
!!!RDT:  2011/10/07/ by Andreas Kornstaedt using massScr2hmd
!!!SCA1: Thematisch-systematisches Verzeichnis der musikalischen Werke 
!!!SCA2: Johann Sebastian Bach: Bach-Werke-Verzeichnis (Schmieder)
!!!YEC1: Copyright 1994, 2000 Center for Computer Assisted Research 
!!!YEC2: in the Humanities
!!!YEM1: Rights to all derivative editions reserved.
!!!YEM2: Refer to licensing agreement for further details.
!!!YEN:  United States of America
!!!ref:  @{OTL}, @{SCT}
!!muse2ps: T^@{OTL} @{ONM} in @{OKY}^C^J.S. Bach\n@{SCT}-@{OMV}^
!!muse2ps: u^@{OPR@ENG}, @{OVM@ENG}^j
